X: 37336
T: Skylark, The
R: reel
M: 4/4
K: Dmajor
|:agfg efdB|AF F2 DFAd|BG G2 (3EFG E2|FA A2 FAdf|
agfg efdB|AF F2 DFAd|BG G2 E2 ag|f2 eg fd d2:|
|:a2 fd Adfd|e3d cA A2|a2 fa bged|Beed efge|
f3a g3e|f2 ef dBAG|FA A2 faag|faeg fd d2:|

